src/assets/icons/cursor-pointer-light.svg

<svg width="24" height="24" viewBox="0 0 24 24" fill="none" xmlns="http://www.w3.org/2000/svg">
<g clip-path="url(#clip0_1_764)">
<path d="M20.2667 11.7333C19.0667 10.4667 17.4667 9.59999 15.8 9.26666C15.0667 9.06666 14.3333 8.93332 13.6 8.86666C15.4667 6.66666 15.1333 3.33332 12.9333 1.46666C10.7333 -0.400009 7.4 -0.0666761 5.53333 2.13332C3.66666 4.33332 4 7.66666 6.2 9.53332C6.6 9.86666 7 10.1333 7.4 10.2667V11.7333L6.33333 10.7333C5.4 9.79999 3.86666 9.79999 2.86666 10.7333C1.93333 11.6667 1.86666 13.1333 2.8 14.0667L5.86666 17.6667C6 18.6 6.33333 19.4667 6.8 20.2667C7.13333 20.8667 7.6 21.4667 8.06666 21.9333V23.2C8.06666 23.6 8.33333 23.8667 8.73333 23.8667H17.8C18.1333 23.8667 18.4667 23.5333 18.4667 23.2V21.4667C19.7333 19.9333 20.4 18 20.4 16.0667V12.2C20.4667 11.9333 20.4 11.8 20.2667 11.7333ZM5.6 5.46666C5.6 3.26666 7.4 1.53332 9.6 1.59999C11.8 1.59999 13.5333 3.39999 13.4667 5.59999C13.4667 6.79999 12.9333 7.86666 12 8.59999V5.26666C11.966 4.6889 11.7122 4.14606 11.2907 3.7494C10.8693 3.35274 10.3121 3.13232 9.73333 3.13332C8.53333 3.06666 7.46666 4.06666 7.46666 5.26666V8.73332C6.33333 8.06666 5.66666 6.79999 5.6 5.46666ZM19.1333 16C19.2 17.7333 18.6 19.4 17.4667 20.7333C17.3333 20.8667 17.2 21 17.2 21.2V22.6H9.46666V21.6667C9.46666 21.4667 9.33333 21.2667 9.2 21.1333C8.73333 20.7333 8.33333 20.2667 8 19.6667C7.6 19 7.33333 18.2 7.2 17.4C7.2 17.2667 7.13333 17.1333 7.06666 17L3.86666 13.2C3.66666 13 3.53333 12.7333 3.53333 12.4C3.53333 12.1333 3.66666 11.8 3.86666 11.6C4.33333 11.2 5 11.2 5.46666 11.6L7.4 13.5333V15.5333L8.66666 14.8667V5.26666C8.73333 4.79999 9.13333 4.39999 9.66666 4.46666C10.1333 4.46666 10.6 4.79999 10.6 5.26666V12.9333L11.9333 13.2V10.1333C12 10.0667 12.0667 10.0667 12.1333 9.99999C12.6 9.99999 13.0667 10.0667 13.5333 10.1333V13.5333L14.6 13.7333V10.2667L15.4 10.4667C15.7333 10.5333 16.0667 10.6667 16.4 10.8V14.1333L17.4667 14.3333V11.2667C18.0667 11.5333 18.6 11.9333 19.0667 12.4L19.1333 16Z" fill="black"/>
</g>
<defs>
<clipPath id="clip0_1_764">
<rect width="24" height="24" fill="white"/>
</clipPath>
</defs>
</svg>

<svg width="24" height="24" viewBox="0 0 24 24" fill="none" xmlns="http://www.w3.org/2000/svg"><g clip-path="url(#a)"><path d="M20.267 11.733A8.52 8.52 0 0 0 15.8 9.267c-.733-.2-1.467-.334-2.2-.4 1.867-2.2 1.533-5.534-.667-7.4-2.2-1.867-5.533-1.534-7.4.666-1.866 2.2-1.533 5.534.667 7.4.4.334.8.6 1.2.734v1.466l-1.067-1c-.933-.933-2.466-.933-3.466 0-.934.934-1 2.4-.067 3.334l3.067 3.6c.133.933.466 1.8.933 2.6.333.6.8 1.2 1.267 1.666V23.2c0 .4.266.667.666.667H17.8c.333 0 .667-.334.667-.667v-1.733a8.51 8.51 0 0 0 1.933-5.4V12.2c.067-.267 0-.4-.133-.467Z" fill="white"/><path d="M20.267 11.733A8.52 8.52 0 0 0 15.8 9.267c-.733-.2-1.467-.334-2.2-.4 1.867-2.2 1.533-5.534-.667-7.4-2.2-1.867-5.533-1.534-7.4.666-1.866 2.2-1.533 5.534.667 7.4.4.334.8.6 1.2.734v1.466l-1.067-1c-.933-.933-2.466-.933-3.466 0-.934.934-1 2.4-.067 3.334l3.067 3.6c.133.933.466 1.8.933 2.6.333.6.8 1.2 1.267 1.666V23.2c0 .4.266.667.666.667H17.8c.333 0 .667-.334.667-.667v-1.733a8.51 8.51 0 0 0 1.933-5.4V12.2c.067-.267 0-.4-.133-.467ZM5.6 5.467c0-2.2 1.8-3.934 4-3.867 2.2 0 3.933 1.8 3.867 4 0 1.2-.534 2.267-1.467 3V5.267a2.266 2.266 0 0 0-2.267-2.134c-1.2-.066-2.266.934-2.266 2.134v3.466C6.333 8.067 5.667 6.8 5.6 5.467ZM19.133 16c.067 1.733-.533 3.4-1.666 4.733-.134.134-.267.267-.267.467v1.4H9.467v-.933c0-.2-.134-.4-.267-.534A5.247 5.247 0 0 1 8 19.667C7.6 19 7.333 18.2 7.2 17.4c0-.133-.067-.267-.133-.4l-3.2-3.8c-.2-.2-.334-.467-.334-.8 0-.267.134-.6.334-.8.466-.4 1.133-.4 1.6 0L7.4 13.533v2l1.267-.666v-9.6c.066-.467.466-.867 1-.8.466 0 .933.333.933.8v7.666l1.333.267v-3.067c.067-.066.134-.066.2-.133.467 0 .934.067 1.4.133v3.4l1.067.2v-3.466l.8.2c.333.066.667.2 1 .333v3.333l1.067.2v-3.066c.6.266 1.133.666 1.6 1.133l.066 3.6Z" fill="#000"/>
</g><defs><clipPath id="a"><path fill="#fff" d="M0 0h24v24H0z"/></clipPath></defs></svg>
